svgs/thin/arrow-down-long.svg

<svg xmlns="http://www.w3.org/2000/svg" viewBox="0 0 320 512"><!-- Font Awesome Pro 6.0.0-alpha2 by @fontawesome - https://fontawesome.com License - https://fontawesome.com/license (Commercial License) --><path d="M154.344 509.656C157.469 512.781 162.531 512.781 165.656 509.656L317.656 357.656C319.219 356.094 320 354.062 320 352S319.219 347.906 317.656 346.344C314.531 343.219 309.469 343.219 306.344 346.344L168 484.688V8C168 3.594 164.422 0 160 0S152 3.594 152 8V484.688L13.656 346.344C10.531 343.219 5.469 343.219 2.344 346.344S-0.781 354.531 2.344 357.656L154.344 509.656Z"/></svg>

<svg xmlns="http://www.w3.org/2000/svg" viewBox="0 0 320 512"><!--! Font Awesome Pro 6.3.0 by @fontawesome - https://fontawesome.com License - https://fontawesome.com/license (Commercial License) Copyright 2023 Fonticons, Inc. --><path d="M154.3 509.7c3.1 3.1 8.2 3.1 11.3 0l152-152c3.1-3.1 3.1-8.2 0-11.3s-8.2-3.1-11.3 0L168 484.7 168 8c0-4.4-3.6-8-8-8s-8 3.6-8 8l0 476.7L13.7 346.3c-3.1-3.1-8.2-3.1-11.3 0s-3.1 8.2 0 11.3l152 152z"/></svg>
